X:910
T:Heathery Cruach, The
T:Cruach Fraoch, An
R:reel
D:Altan: Island Angel
Z:id:hn-reel-910
M:C|
L:1/8
K:D
(3ABc | d2AG FDAG | FDAF E2 (3ABc | d2AG FDAG | FGAF Dgfe |
d2AG FDAG | FDAF E2FG | ABAG FDDE | FGAF D2 :|
|: ed | cA~A2 cAGB | cBcd efed | cA~A2 cAAG | EFGE Dfed |
cA~A2 cAGB | cBcd efe2 | f2ed cAAG | EFGE D2 :|

